Breeze/apps/software/kdenlive.svg

<?xml version="1.0" encoding="UTF-8" standalone="no"?>
<!-- Created with Inkscape (http://www.inkscape.org/) -->

<svg
   xmlns:dc="http://purl.org/dc/elements/1.1/"
   xmlns:cc="http://creativecommons.org/ns#"
   xmlns:rdf="http://www.w3.org/1999/02/22-rdf-syntax-ns#"
   xmlns:svg="http://www.w3.org/2000/svg"
   xmlns="http://www.w3.org/2000/svg"
   xmlns:xlink="http://www.w3.org/1999/xlink"
   xmlns:sodipodi="http://sodipodi.sourceforge.net/DTD/sodipodi-0.dtd"
   xmlns:inkscape="http://www.inkscape.org/namespaces/inkscape"
   width="48"
   height="48"
   id="svg5453"
   version="1.1"
   inkscape:version="0.91+devel r"
   sodipodi:docname="kdenlive.svg"
   viewBox="0 0 48 48">
  <defs
     id="defs5455">
    <linearGradient
       inkscape:collect="always"
       id="linearGradient4689">
      <stop
         style="stop-color:#000000;stop-opacity:1;"
         offset="0"
         id="stop4691" />
      <stop
         style="stop-color:#000000;stop-opacity:0;"
         offset="1"
         id="stop4693" />
    </linearGradient>
    <linearGradient
       inkscape:collect="always"
       xlink:href="#linearGradient4199"
       id="linearGradient4457"
       x1="45.999989"
       y1="42"
       x2="1.99999"
       y2="4"
       gradientUnits="userSpaceOnUse" />
    <linearGradient
       inkscape:collect="always"
       id="linearGradient4303-4">
      <stop
         style="stop-color:#197cf1;stop-opacity:1"
         offset="0"
         id="stop4305-7" />
      <stop
         style="stop-color:#21c9fb;stop-opacity:1"
         offset="1"
         id="stop4307-4" />
    </linearGradient>
    <linearGradient
       inkscape:collect="always"
       xlink:href="#linearGradient4303-4"
       id="linearGradient4579"
       x1="-430.57144"
       y1="541.79797"
       x2="-385.57144"
       y2="503.798"
       gradientUnits="userSpaceOnUse" />
    <linearGradient
       id="linearGradient4435"
       inkscape:collect="always">
      <stop
         id="stop4437"
         offset="0"
         style="stop-color:#c61423;stop-opacity:1" />
      <stop
         id="stop4439"
         offset="1"
         style="stop-color:#dc2b41;stop-opacity:1" />
    </linearGradient>
    <linearGradient
       inkscape:collect="always"
       xlink:href="#linearGradient4435"
       id="linearGradient4669"
       x1="408.57144"
       y1="543.79797"
       x2="404.57144"
       y2="503.798"
       gradientUnits="userSpaceOnUse"
       gradientTransform="matrix(2.0000106,0,0,1,-404.57574,0)" />
    <linearGradient
       inkscape:collect="always"
       xlink:href="#linearGradient4689"
       id="linearGradient4695"
       x1="408.57144"
       y1="503.798"
       x2="429.93341"
       y2="540.79797"
       gradientUnits="userSpaceOnUse"
       gradientTransform="translate(-380.57143,-499.798)" />
    <linearGradient
       id="linearGradient4199"
       inkscape:collect="always">
      <stop
         id="stop4201"
         offset="0"
         style="stop-color:#2f3943;stop-opacity:1" />
      <stop
         id="stop4203"
         offset="1"
         style="stop-color:#4d5662;stop-opacity:1" />
    </linearGradient>
  </defs>
  <sodipodi:namedview
     id="base"
     pagecolor="#ffffff"
     bordercolor="#666666"
     borderopacity="1.0"
     inkscape:pageopacity="0"
     inkscape:pageshadow="2"
     inkscape:zoom="15.999999"
     inkscape:cx="20.421186"
     inkscape:cy="25.949795"
     inkscape:document-units="px"
     inkscape:current-layer="layer1"
     showgrid="true"
     fit-margin-top="0"
     fit-margin-left="0"
     fit-margin-right="0"
     fit-margin-bottom="0"
     inkscape:window-width="2560"
     inkscape:window-height="964"
     inkscape:window-x="-4"
     inkscape:window-y="34"
     inkscape:window-maximized="1"
     inkscape:showpageshadow="false"
     borderlayer="true"
     showguides="false"
     inkscape:snap-global="true"
     inkscape:snap-bbox="true"
     inkscape:bbox-nodes="true"
     inkscape:object-nodes="true">
    <inkscape:grid
       type="xygrid"
       id="grid4063"
       empspacing="5"
       visible="true"
       enabled="true"
       snapvisiblegridlinesonly="true"
       spacingx="1px"
       spacingy="1px" />
    <sodipodi:guide
       position="-1e-05,44"
       orientation="2,0"
       id="guide4521" />
    <sodipodi:guide
       position="-1e-05,42"
       orientation="38,0"
       id="guide4523" />
    <sodipodi:guide
       position="-1e-05,4"
       orientation="0,2"
       id="guide4525" />
    <sodipodi:guide
       position="1.99999,4"
       orientation="0,46"
       id="guide4527" />
    <sodipodi:guide
       position="47.99999,4"
       orientation="-2,0"
       id="guide4529" />
    <sodipodi:guide
       position="47.99999,6"
       orientation="-36,0"
       id="guide4531" />
    <sodipodi:guide
       position="47.99999,42"
       orientation="-2,0"
       id="guide4533" />
    <sodipodi:guide
       position="47.99999,44"
       orientation="0,-2"
       id="guide4535" />
    <sodipodi:guide
       position="45.99999,44"
       orientation="0,-44"
       id="guide4537" />
    <sodipodi:guide
       position="1.99999,44"
       orientation="0,-2"
       id="guide4539" />
    <sodipodi:guide
       position="-1e-05,44"
       orientation="0,0"
       id="guide4541" />
    <sodipodi:guide
       position="1.99999,42"
       orientation="0,44"
       id="guide4543" />
    <sodipodi:guide
       position="45.99999,42"
       orientation="36,0"
       id="guide4545" />
    <sodipodi:guide
       position="45.99999,6"
       orientation="0,-44"
       id="guide4547" />
    <sodipodi:guide
       position="1.99999,6"
       orientation="-36,0"
       id="guide4549" />
    <sodipodi:guide
       position="1.99999,42"
       orientation="0,0"
       id="guide4551" />
  </sodipodi:namedview>
  <metadata
     id="metadata5458">
    <rdf:RDF>
      <cc:Work
         rdf:about="">
        <dc:format>image/svg+xml</dc:format>
        <dc:type
           rdf:resource="http://purl.org/dc/dcmitype/StillImage" />
        <dc:title />
      </cc:Work>
    </rdf:RDF>
  </metadata>
  <g
     inkscape:label="Capa 1"
     inkscape:groupmode="layer"
     id="layer1"
     transform="translate(-384.57143,-499.798)">
    <rect
       style="opacity:1;fill:url(#linearGradient4579);fill-opacity:1;stroke:none;stroke-width:0.5;stroke-linecap:butt;stroke-linejoin:round;stroke-miterlimit:4;stroke-dasharray:none;stroke-opacity:1"
       id="rect4358-0-4"
       width="42.000011"
       height="26.000008"
       x="-429.57144"
       y="510.798"
       transform="scale(-1,1)" />
    <rect
       style="opacity:1;fill:url(#linearGradient4669);fill-opacity:1;stroke:none;stroke-width:0.5;stroke-linecap:butt;stroke-linejoin:round;stroke-miterlimit:4;stroke-dasharray:none;stroke-opacity:1"
       id="rect4177-57"
       width="7.999958"
       height="39.999996"
       x="404.57147"
       y="503.798"
       ry="0" />
    <path
       style="opacity:1;fill:url(#linearGradient4457);fill-opacity:1;stroke:none;stroke-width:0.5;stroke-linecap:butt;stroke-linejoin:round;stroke-miterlimit:4;stroke-dasharray:none;stroke-opacity:1"
       d="m 0,6 v 2 h 2 v 2 H 0 v 2 H 2 V 36 H 0 v 2 h 2 v 2 H 0 v 2 h 22 v -2 h -2 v -2 h 2 V 36 H 20 V 12 h 2 V 10 H 20 V 8 h 2 V 6 Z m 26,0 v 2 h 2 v 2 h -2 v 2 h 2 v 24 h -2 v 2 h 2 v 2 h -2 v 2 h 22 v -2 h -2 v -2 h 2 V 36 H 46 V 12 h 2 V 10 H 46 V 8 h 2 V 6 Z M 4,8 h 2 v 2 H 4 Z m 4,0 h 2 v 2 H 8 Z m 4,0 h 2 v 2 h -2 z m 4,0 h 2 v 2 h -2 z m 14,0 h 2 v 2 h -2 z m 4,0 h 2 v 2 h -2 z m 4,0 h 2 v 2 h -2 z m 4,0 h 2 v 2 H 42 Z M 4,12 H 18 V 36 H 4 Z m 26,0 H 44 V 36 H 30 Z M 4,38 h 2 v 2 H 4 Z m 4,0 h 2 v 2 H 8 Z m 4,0 h 2 v 2 h -2 z m 4,0 h 2 v 2 h -2 z m 14,0 h 2 v 2 h -2 z m 4,0 h 2 v 2 h -2 z m 4,0 h 2 v 2 h -2 z m 4,0 h 2 v 2 h -2 z"
       transform="translate(384.57143,499.798)"
       id="rect4209"
       inkscape:connector-curvature="0" />
    <path
       style="opacity:0.2;fill:url(#linearGradient4695);fill-opacity:1;fill-rule:evenodd;stroke:none;stroke-width:1px;stroke-linecap:butt;stroke-linejoin:miter;stroke-opacity:1"
       d="M 26 6 L 26 8 L 28 8 L 28 10 L 26 10 L 26 12 L 28 12 L 28 36 L 26 36 L 26 38 L 28 38 L 28 40 L 26 40 L 26 41 L 26 42 L 28 42 L 32 42 L 48 42 L 48 40 L 46 40 L 46 38 L 48 38 L 48 37 L 46 37 L 46 22 L 30 6 L 26 6 z M 30 38 L 32 38 L 32 40 L 30 40 L 30 38 z M 34 38 L 36 38 L 36 40 L 34 40 L 34 38 z M 38 38 L 40 38 L 40 40 L 38 40 L 38 38 z M 42 38 L 44 38 L 44 40 L 42 40 L 42 38 z "
       transform="translate(384.57143,499.798)"
       id="path4679" />
  </g>
</svg>

<?xml version="1.0" encoding="UTF-8" standalone="no"?>
<!-- Created with Inkscape (http://www.inkscape.org/) -->

<svg
   xmlns:dc="http://purl.org/dc/elements/1.1/"
   xmlns:cc="http://creativecommons.org/ns#"
   xmlns:rdf="http://www.w3.org/1999/02/22-rdf-syntax-ns#"
   xmlns:svg="http://www.w3.org/2000/svg"
   xmlns="http://www.w3.org/2000/svg"
   xmlns:xlink="http://www.w3.org/1999/xlink"
   xmlns:sodipodi="http://sodipodi.sourceforge.net/DTD/sodipodi-0.dtd"
   xmlns:inkscape="http://www.inkscape.org/namespaces/inkscape"
   width="48"
   height="48"
   id="svg5453"
   version="1.1"
   inkscape:version="0.91 r13725"
   sodipodi:docname="kdenlive.svg">
  <defs
     id="defs5455">
    <linearGradient
       inkscape:collect="always"
       id="linearGradient4689">
      <stop
         style="stop-color:#000000;stop-opacity:1;"
         offset="0"
         id="stop4691" />
      <stop
         style="stop-color:#000000;stop-opacity:0;"
         offset="1"
         id="stop4693" />
    </linearGradient>
    <linearGradient
       inkscape:collect="always"
       xlink:href="#linearGradient4199"
       id="linearGradient4457"
       x1="45.999989"
       y1="42"
       x2="1.99999"
       y2="4"
       gradientUnits="userSpaceOnUse" />
    <linearGradient
       inkscape:collect="always"
       id="linearGradient4303-4">
      <stop
         style="stop-color:#197cf1;stop-opacity:1"
         offset="0"
         id="stop4305-7" />
      <stop
         style="stop-color:#21c9fb;stop-opacity:1"
         offset="1"
         id="stop4307-4" />
    </linearGradient>
    <linearGradient
       inkscape:collect="always"
       xlink:href="#linearGradient4303-4"
       id="linearGradient4579"
       x1="-430.57144"
       y1="541.79797"
       x2="-385.57144"
       y2="503.798"
       gradientUnits="userSpaceOnUse" />
    <linearGradient
       id="linearGradient4435"
       inkscape:collect="always">
      <stop
         id="stop4437"
         offset="0"
         style="stop-color:#c61423;stop-opacity:1" />
      <stop
         id="stop4439"
         offset="1"
         style="stop-color:#dc2b41;stop-opacity:1" />
    </linearGradient>
    <linearGradient
       inkscape:collect="always"
       xlink:href="#linearGradient4435"
       id="linearGradient4669"
       x1="408.57144"
       y1="543.79797"
       x2="404.57144"
       y2="503.798"
       gradientUnits="userSpaceOnUse"
       gradientTransform="matrix(2.0000106,0,0,1,-404.57574,0)" />
    <linearGradient
       inkscape:collect="always"
       xlink:href="#linearGradient4689"
       id="linearGradient4695"
       x1="408.57144"
       y1="503.798"
       x2="429.93341"
       y2="540.79797"
       gradientUnits="userSpaceOnUse"
       gradientTransform="translate(4,0)" />
    <linearGradient
       id="linearGradient4199"
       inkscape:collect="always">
      <stop
         id="stop4201"
         offset="0"
         style="stop-color:#2f3943;stop-opacity:1" />
      <stop
         id="stop4203"
         offset="1"
         style="stop-color:#4d5662;stop-opacity:1" />
    </linearGradient>
  </defs>
  <sodipodi:namedview
     id="base"
     pagecolor="#ffffff"
     bordercolor="#666666"
     borderopacity="1.0"
     inkscape:pageopacity="0"
     inkscape:pageshadow="2"
     inkscape:zoom="11.313708"
     inkscape:cx="2.4214243"
     inkscape:cy="21.829584"
     inkscape:document-units="px"
     inkscape:current-layer="layer1"
     showgrid="false"
     fit-margin-top="0"
     fit-margin-left="0"
     fit-margin-right="0"
     fit-margin-bottom="0"
     inkscape:window-width="2560"
     inkscape:window-height="1508"
     inkscape:window-x="0"
     inkscape:window-y="0"
     inkscape:window-maximized="1"
     inkscape:showpageshadow="false"
     borderlayer="true"
     showguides="false"
     inkscape:snap-global="true"
     inkscape:snap-bbox="true"
     inkscape:bbox-nodes="true"
     inkscape:object-nodes="true">
    <inkscape:grid
       type="xygrid"
       id="grid4063"
       empspacing="5"
       visible="true"
       enabled="true"
       snapvisiblegridlinesonly="true"
       spacingx="1px"
       spacingy="1px" />
    <sodipodi:guide
       position="-1e-05,44"
       orientation="2,0"
       id="guide4521" />
    <sodipodi:guide
       position="-1e-05,42"
       orientation="38,0"
       id="guide4523" />
    <sodipodi:guide
       position="-1e-05,4"
       orientation="0,2"
       id="guide4525" />
    <sodipodi:guide
       position="1.99999,4"
       orientation="0,46"
       id="guide4527" />
    <sodipodi:guide
       position="47.99999,4"
       orientation="-2,0"
       id="guide4529" />
    <sodipodi:guide
       position="47.99999,6"
       orientation="-36,0"
       id="guide4531" />
    <sodipodi:guide
       position="47.99999,42"
       orientation="-2,0"
       id="guide4533" />
    <sodipodi:guide
       position="47.99999,44"
       orientation="0,-2"
       id="guide4535" />
    <sodipodi:guide
       position="45.99999,44"
       orientation="0,-44"
       id="guide4537" />
    <sodipodi:guide
       position="1.99999,44"
       orientation="0,-2"
       id="guide4539" />
    <sodipodi:guide
       position="-1e-05,44"
       orientation="0,0"
       id="guide4541" />
    <sodipodi:guide
       position="1.99999,42"
       orientation="0,44"
       id="guide4543" />
    <sodipodi:guide
       position="45.99999,42"
       orientation="36,0"
       id="guide4545" />
    <sodipodi:guide
       position="45.99999,6"
       orientation="0,-44"
       id="guide4547" />
    <sodipodi:guide
       position="1.99999,6"
       orientation="-36,0"
       id="guide4549" />
    <sodipodi:guide
       position="1.99999,42"
       orientation="0,0"
       id="guide4551" />
  </sodipodi:namedview>
  <metadata
     id="metadata5458">
    <rdf:RDF>
      <cc:Work
         rdf:about="">
        <dc:format>image/svg+xml</dc:format>
        <dc:type
           rdf:resource="http://purl.org/dc/dcmitype/StillImage" />
        <dc:title />
      </cc:Work>
    </rdf:RDF>
  </metadata>
  <g
     inkscape:label="Capa 1"
     inkscape:groupmode="layer"
     id="layer1"
     transform="translate(-384.57143,-499.798)">
    <rect
       style="opacity:1;fill:url(#linearGradient4579);fill-opacity:1;stroke:none;stroke-width:0.5;stroke-linecap:butt;stroke-linejoin:round;stroke-miterlimit:4;stroke-dasharray:none;stroke-opacity:1"
       id="rect4358-0-4"
       width="42.000011"
       height="26.000008"
       x="-429.57144"
       y="510.798"
       transform="scale(-1,1)" />
    <rect
       style="opacity:1;fill:url(#linearGradient4669);fill-opacity:1;stroke:none;stroke-width:0.5;stroke-linecap:butt;stroke-linejoin:round;stroke-miterlimit:4;stroke-dasharray:none;stroke-opacity:1"
       id="rect4177-57"
       width="7.999958"
       height="39.999996"
       x="404.57147"
       y="503.798"
       ry="0" />
    <path
       style="opacity:1;fill:url(#linearGradient4457);fill-opacity:1.0;stroke:none;stroke-width:0.5;stroke-linecap:butt;stroke-linejoin:round;stroke-miterlimit:4;stroke-dasharray:none;stroke-opacity:1"
       d="M 0 6 L 0 8 L 2 8 L 2 10 L 0 10 L 0 12 L 2 12 L 2 36 L 0 36 L 0 38 L 2 38 L 2 40 L 0 40 L 0 42 L 22 42 L 22 40 L 20 40 L 20 38 L 22 38 L 22 36 L 20 36 L 20 12 L 22 12 L 22 10 L 20 10 L 20 8 L 22 8 L 22 6 L 0 6 z M 26 6 L 26 8 L 28 8 L 28 10 L 26 10 L 26 12 L 28 12 L 28 36 L 26 36 L 26 38 L 28 38 L 28 40 L 26 40 L 26 42 L 48 42 L 48 40 L 46 40 L 46 38 L 48 38 L 48 36 L 46 36 L 46 12 L 48 12 L 48 10 L 46 10 L 46 8 L 48 8 L 48 6 L 26 6 z M 4 8 L 6 8 L 6 10 L 4 10 L 4 8 z M 8 8 L 10 8 L 10 10 L 8 10 L 8 8 z M 12 8 L 14 8 L 14 10 L 12 10 L 12 8 z M 16 8 L 18 8 L 18 10 L 16 10 L 16 8 z M 30 8 L 32 8 L 32 10 L 30 10 L 30 8 z M 34 8 L 36 8 L 36 10 L 34 10 L 34 8 z M 38 8 L 40 8 L 40 10 L 38 10 L 38 8 z M 42 8 L 44 8 L 44 10 L 42 10 L 42 8 z M 4 12 L 18 12 L 18 36 L 4 36 L 4 12 z M 30 12 L 44 12 L 44 36 L 30 36 L 30 12 z M 4 38 L 6 38 L 6 40 L 4 40 L 4 38 z M 8 38 L 10 38 L 10 40 L 8 40 L 8 38 z M 12 38 L 14 38 L 14 40 L 12 40 L 12 38 z M 16 38 L 18 38 L 18 40 L 16 40 L 16 38 z M 30 38 L 32 38 L 32 40 L 30 40 L 30 38 z M 34 38 L 36 38 L 36 40 L 34 40 L 34 38 z M 38 38 L 40 38 L 40 40 L 38 40 L 38 38 z M 42 38 L 44 38 L 44 40 L 42 40 L 42 38 z "
       transform="translate(384.57143,499.798)"
       id="rect4209" />
    <path
       style="opacity:0.2;fill:url(#linearGradient4695);fill-opacity:1;fill-rule:evenodd;stroke:none;stroke-width:1px;stroke-linecap:butt;stroke-linejoin:miter;stroke-opacity:1"
       d="m 414.57143,505.798 19.99999,19.99999 0,16.00001 -17.99999,0 0,2 -4,0 0,-2.5 -2,0.5 0,-2 2,0 0,-2 -2,0 0,-2 2,0 0,-24 -2,0 0,-2 2,0 0,-2 -2,0 0,-2 z"
       id="path4679"
       inkscape:connector-curvature="0"
       sodipodi:nodetypes="cccccccccccccccccccccc" />
  </g>
</svg>
